file/spacex.svg

<svg clip-rule="evenodd" fill-rule="evenodd" stroke-linejoin="round" stroke-miterlimit="1.41421" viewBox="0 0 560 400" xmlns="http://www.w3.org/2000/svg"><g fill-rule="nonzero" transform="matrix(1.30719 0 0 1.30719 18.4967 15.6863)"><path d="m97.9 134.9h-32.3l-1.2.9v28.8h9v-10.8l.9-.8h23.7c6 0 8.8-1.6 8.8-5.7v-6.6c-.1-4.2-2.9-5.8-8.9-5.8m0 10.6c0 1.9-1.3 2.4-4.1 2.4h-19.5l-1-.9v-6.2l.9-.8h19.6c2.8 0 4.1.4 4.1 2.4zm25.2-5.2 7.7 11.3-.4 1.1h-17l-4.3 5.3h25.4l1.8 1.1 3.9 5.4h10.2l-22.5-30m97 24.2v-8l.9-.8h17.2v-5.1h-27.2v19.7h40.1v-5.1h-30m-10.1-24.5h40.5v5.6h-40.5zm-45.2 5.3h32.6c-.5-4.1-3.1-5.3-9.6-5.3h-23.4c-7.4 0-9.7 1.4-9.7 7v15.6c0 5.6 2.3 7 9.7 7h23.4c6.6 0 9.2-1.2 9.3-5.5h-32.3l-1-.9v-17.3m-127 5.6h-23.7l-.7-.8v-5.1l.7-.5h32l.4-1.1c-1.1-2.8-3.9-4.1-9.1-4.1h-22.2c-7.4 0-9.7 1.4-9.7 7v3.3c0 5.6 2.4 7 9.7 7h23.7l.7.7v5.3l-.6.8h-27.1-7.1s-.8.4-.8.6c.6 3.9 3.3 5 9.6 5h24.2c7.4 0 9.8-1.4 9.8-7v-4.1c0-5.5-2.4-7-9.8-7m239.1-11.7h-13.3l-.7 1.4 14.8 10.8c2.8-1.6 5.8-3.3 9.2-4.9m2 13.1 13 9.5h13.5l.6-1.3-19.4-14.2c-2.7 1.9-5.2 3.9-7.7 6" fill="#005288"/><path d="m279.8 164.5h-12l-1-1.6c8.2-7.9 44.8-41.8 124.5-45.5-.1.1-67 2.3-111.5 47.1" fill="#a7a9ac"/></g></svg>

<?xml version="1.0" encoding="UTF-8" standalone="no"?>
<!DOCTYPE svg PUBLIC "-//W3C//DTD SVG 1.1//EN" "http://www.w3.org/Graphics/SVG/1.1/DTD/svg11.dtd">
<svg width="100%" height="100%" viewBox="0 0 560 400" version="1.1" xmlns="http://www.w3.org/2000/svg" xmlns:xlink="http://www.w3.org/1999/xlink" xml:space="preserve" xmlns:serif="http://www.serif.com/" style="fill-rule:evenodd;clip-rule:evenodd;stroke-linejoin:round;stroke-miterlimit:1.41421;">
    <g transform="matrix(1.30719,0,0,1.30719,18.4967,15.6863)">
        <path id="blue" d="M97.9,134.9L65.6,134.9L64.4,135.8L64.4,164.6L73.4,164.6L73.4,153.8L74.3,153L98,153C104,153 106.8,151.4 106.8,147.3L106.8,140.7C106.7,136.5 103.9,134.9 97.9,134.9M97.9,145.5C97.9,147.4 96.6,147.9 93.8,147.9L74.3,147.9L73.3,147L73.3,140.8L74.2,140L93.8,140C96.6,140 97.9,140.4 97.9,142.4L97.9,145.5ZM123.1,140.3L130.8,151.6L130.4,152.7L113.4,152.7L109.1,158L134.5,158L136.3,159.1L140.2,164.5L150.4,164.5L127.9,134.5M224.9,158.7L224.9,150.7L225.8,149.9L243,149.9L243,144.8L215.8,144.8L215.8,164.5L255.9,164.5L255.9,159.4L225.9,159.4M215.8,134.9L256.3,134.9L256.3,140.5L215.8,140.5L215.8,134.9ZM170.6,140.2L203.2,140.2C202.7,136.1 200.1,134.9 193.6,134.9L170.2,134.9C162.8,134.9 160.5,136.3 160.5,141.9L160.5,157.5C160.5,163.1 162.8,164.5 170.2,164.5L193.6,164.5C200.2,164.5 202.8,163.3 202.9,159L170.6,159L169.6,158.1L169.6,140.8M42.6,146.4L18.9,146.4L18.2,145.6L18.2,140.5L18.9,140L50.9,140L51.3,138.9C50.2,136.1 47.4,134.8 42.2,134.8L20,134.8C12.6,134.8 10.3,136.2 10.3,141.8L10.3,145.1C10.3,150.7 12.7,152.1 20,152.1L43.7,152.1L44.4,152.8L44.4,158.1L43.8,158.9L16.7,158.9L9.6,158.9C9.6,158.9 8.8,159.3 8.8,159.5C9.4,163.4 12.1,164.5 18.4,164.5L42.6,164.5C50,164.5 52.4,163.1 52.4,157.5L52.4,153.4C52.4,147.9 50,146.4 42.6,146.4M281.7,134.7L268.4,134.7L267.7,136.1L282.5,146.9C285.3,145.3 288.3,143.6 291.7,142M293.7,155.1L306.7,164.6L320.2,164.6L320.8,163.3L301.4,149.1C298.7,151 296.2,153 293.7,155.1" style="fill:rgb(0,82,136);fill-rule:nonzero;"/>
        <path id="grey" d="M279.8,164.5L267.8,164.5L266.8,162.9C275,155 311.6,121.1 391.3,117.4C391.2,117.5 324.3,119.7 279.8,164.5" style="fill:rgb(167,169,172);fill-rule:nonzero;"/>
    </g>
</svg>
